X:81
T: Ehestandslied (Band 1), S. 227
N: P0856
O: Lothringen
S: PINCK, Louis: Verklingende Weisen, Bd 1, Metz 1928]
R: Ehestandslied, religis]
M: 4/4
L: 1/16
K: G
D2D2 | G6F2G4A2A2 | B6A2G4
G2AB | B6A2B4c4 | d4d4B4
A2B2 | c8d6-dB | A12
G4 | G6B2d4B2G2 | A6B2c4
A4 | B4c4d4G4 | G4F2E2D4
D4 | G8A8 | G6B2d3ed2c2 | B8A8 | G8z4

@@@ Tune index: 7631
